public/patterns/curtain.svg

<svg width="44" height="12" viewBox="0 0 44 12" xmlns="http://www.w3.org/2000/svg"><path d="M20 12v-2L0 0v10l4 2h16Zm18 0 4-2V0L22 10v2h16ZM20 0v8L4 0h16Zm18 0L22 8V0h16Z" fill-rule="evenodd"/></svg>

<?xml version="1.0" encoding="UTF-8" standalone="no"?>
<svg width="44px" height="12px" viewBox="0 0 44 12" version="1.1" xmlns="http://www.w3.org/2000/svg" xmlns:xlink="http://www.w3.org/1999/xlink">
    <!-- Generator: Sketch 40 (33762) - http://www.bohemiancoding.com/sketch -->
    <title>up-down</title>
    <desc>Created with Sketch.</desc>
    <defs></defs>
    <g id="Page-1" stroke="none" stroke-width="1" fill="none" fill-rule="evenodd">
        <g id="up-down" fill="#000000">
            <path d="M20,12 L20,10 L0,0 L0,10 L4,12 L20,12 L20,12 Z M38,12 L42,10 L42,0 L22,10 L22,12 L38,12 Z M20,0 L20,8 L4,1.77635684e-15 L20,0 L20,0 Z M38,8.8817842e-16 L22,8 L22,0 L38,5.55111512e-16 L38,8.8817842e-16 Z" id="Combined-Shape"></path>
        </g>
    </g>
</svg>
